X:1
T:Märznacht
T:Conradin Kreutzer
T:Ludwig Uhland
T:Märznacht
T:CPDL - Creative Commons Attribution Non Commercial 3.0
T:CPDL - Creative Commons Attribution Non Commercial 3.0
T:CPDL - Creative Commons Attribution Non Commercial 3.0
T:CPDL - Creative Commons Attribution Non Commercial 3.0
T:CPDL - Creative Commons Attribution Non Commercial 3.0
T:CPDL - Creative Commons Attribution Non Commercial 3.0
T:CPDL - Creative Commons Attribution Non Commercial 3.0
C:Conradin Kreutzer
Z:Ludwig Uhland
Z:CPDL - Creative Commons Attribution Non Commercial 3.0
%%score [ 1 2 ( 3 4 ) ]
L:1/8
Q:1/4=120
M:4/4
K:Eb
V:1 treble-8 nm="Tenor\n1"
V:2 treble-8 nm="Tenor\n2"
V:3 bass nm="Bass"
V:4 bass 
V:1
!p!"^cresc.""^Sehr lebhaft" G3 G G2 GG | c2 cc c2 cc |!f! e4 d2 c2 | .=B2 .d2 z4 | %4
w: Horch! wie brau- set der|Sturm und der schwel- len- de|Strom in der|Nacht hin!|
!p!"^cresc." =B3 B B2 BB | d2 dd d2 dd |!f! f4 e2 d2 | .c2 .e2 z4 |!ff! =e3 e e2 ee | f4 z2 ff | %10
w: Horch! wie brau- set der|Sturm und der schwel- len- de|Strom in der|Nacht hin!|Horch! wie brau- set der|Sturm und der|
 g2 gg g2 BB | .A2 .f2 z4 |!pp! d3 d d2 dd |!<(! !breath!d8!<)! | d3 d d2 dd | %15
w: schwel- len- de Strom in der|Nacht hin!|Horch! wie brau- set der|Sturm!|Horch! wie brau- set der|
!<(! !breath!d6!<)! dd |!f! e2!<(! =e!<)!e!<(! f2 ^f!<)!f |!ff! g8- | g4!>(! !fermata!G4!>)! || %19
w: Sturm und der|schwel- len- de Strom in der|Nacht|_ hin!|
[K:C] e6 d2 | c2 .d.B c2 z2 | e6 d2 | c2 .d.B c2 z2 |"^Solo" z8 | f4 g2 f2 | (e2 g2) g2 z2 | %26
w: Schau- rig|sü- ßes Ge- fühl,|schau- rig|sü- ßes Ge- fühl!||Lieb- li- cher|Früh- * ling,|
 f4 g2 f2 |!<(! (d8!<)! |!>(! e2)!>)! z2 z4 |"^Tutti"!pp! e3 e"^cresc." e2 ee | e2 ee e2 ee | %31
w: Früh- ling, du|nahst!|_|Horch! wie brau- set der|Sturm und der schwel- len- de|
!f! e4 e3 e | .e2 .e2 z4 |!p! e3 e"^cresc." e2 ee | ^d2 dd d2 dd |!f! =d4 d3 d | .d2 .c2 z4 | %37
w: Strom in der|Nacht hin!|Horch! wie brau- set der|Sturm und der schwel- len- de|Strom in der|Nacht hin!|
 f6 e2 | d2 .e.^c d2 z2 | f6 e2 | d2 .e.^c d2 z2 |"^Solo"!p! f4 g2 f2 | (e2 g2) g2 z2 | f4 g2 f2 | %44
w: Schau- rig|sü- ßes Ge- fühl,|schau- rig|sü- ßes Ge- fühl!|Lieb- li- cher|Früh- * ling,|Früh- ling, du|
!>(! (d4!>)! e2) z2 |"^Tutti" ^f6 g2 | ^f2 ff f2 z2 | =f6 f2 | f2 ff !fermata!f4 | %49
w: nahst! _|Schau- rig|sü- ßes Ge- fühl,|schau- rig|sü- ßes Ge- fühl!|
"^Solo""^dolce" (e2 g2) .g2 .c2 | (c2 e2) .e2 .c2 | (d2 g4) fd |!>(! (d4 e2)!>)! z2 | %53
w: Lieb- * li- cher|Früh- * ling, du|nahst, _ du _|nahst. _|
 (e2 g2) .g2 .c2 | (c2 e2) !breath!.e2"^Tutti"!p! .c2 | (d2!>(! g4)!>)! fd | %56
w: Lieb- * li- cher|Früh- * ling, du|nahst, _ du _|
"^cresc." !breath!e6 e2 | (d2 g4) df |!f!!>(! !fermata!e8!>)! |] %59
w: nahst, du|nahst, _ du _|nahst.|
V:2
!p!"^cresc." G3 G G2 GG | G2 GG G2 GG |!f! G4 G2 G2 | .A2 .A2 z4 |!p!"^cresc." G3 G G2 GG | %5
w: Horch! wie brau- set der|Sturm und der schwel- len- de|Strom in der|Nacht hin!|Horch! wie brau- set der|
 G2 GG G2 GG |!f! G4 G2 G2 | .G2 .c2 z4 |!ff! c6 c2 | c2 cc c2 cc | c2 cc c2 cc | .c2 .c2 z4 | %12
w: Sturm und der schwel- len- de|Strom in der|Nacht hin!|Horch! wie|brau- set der Sturm und der|schwel- len- de Strom in der|Nacht hin!|
!pp! c3 c c2 cc |!<(! !breath!c8!<)! | c3 c c2 cc |!<(! !breath!c6!<)! cc | %16
w: Horch! wie brau- set der|Sturm!|Horch! wie brau- set der|Sturm und der|
!f! c2!<(! c!<)!c!<(! c2 c!<)!c |!ff! e4 .d2 .c2 | d4!>(! !fermata!G4!>)! ||[K:C] c6 B2 | %20
w: schwel- len- de Strom in der|Nacht, in der|Nacht hin!|Schau- rig|
 c2 .B.G G2 z2 | c6 B2 | c2 .B.G G2 z2 |"^dolce" c4 d2 c2 | c4 B2 z2 | c4 d2 c2 | c4 B2 B2 | %27
w: sü- ßes Ge- fühl,|schau- rig|sü- ßes Ge- fühl!|Lieb- li- cher|Früh- ling,|lieb- li- cher|Früh- ling, du|
!<(! (B8!<)! |!>(! c2)!>)! z2 z4 |!pp! B3 B"^cresc." B2 BB | c2 cc c2 cc |!f! d4 c3 c | %32
w: nahst!|_|Horch! wie brau- set der|Sturm und der schwel- len- de|Strom in der|
 .c2 .B2 z4 |!p! ^G3 G"^cresc." G2 GG | A2 AA A2 AA |!f! B4 B3 B | .B2 .A2 z4 | d6 ^c2 | %38
w: Nacht hin!|Horch! wie brau- set der|Sturm und der schwel- len- de|Strom in der|Nacht hin!|Schau- rig|
 d2 .^c.A A2 z2 | d6 ^c2 | d2 .^c.A A2 z2 |!p! =B4 B2 B2 | c4 (d2 c2) | B4 B2 B2 | %44
w: sü- ßes Ge- fühl,|schau- rig|sü- ßes Ge- fühl!|Lieb- li- cher|Früh- ling, _|Früh- ling, du|
!>(! (B4!>)! c2) z2 | c6 c2 | c2 cc c2 z2 | d6 d2 | d2 dd !fermata!d4 |"^dolce" (c2 e2) .e2 .E2 | %50
w: nahst! _|Schau- rig|sü- ßes Ge- fühl,|schau- rig|sü- ßes Ge- fühl!|Lieb- * li- cher|
 (E2 c2) .c2 .c2 | (B2 d4) B2 |!>(! (B4 c2)!>)! z2 | (c2 e2) .e2 .E2 | (E2 c2) !breath!.c2!p! .c2 | %55
w: Früh- * ling, du|nahst, _ du|nahst. _|Lieb- * li- cher|Früh- * ling, du|
 (B2!>(! d4)!>)! B2 |"^cresc." !breath!c6 c2 | (B2 d4) fd |!f!!>(! !fermata!c8!>)! |] %59
w: nahst, _ du|nahst, du|nahst, _ du _|nahst.|
V:3
!p!"^cresc." E,3 E, E,2 E,E, | E,2 E,E, E,2 E,E, |!f! E,4 F,2 G,2 | .F,2 .F,2 z4 | %4
w: ||||
!p!"^cresc." F,3 F, F,2 F,F, | F,2 F,F, F,2 F,F, |!f! D,4 E,2 F,2 | .G,2 .G,2 z4 | %8
w: ||||
!ff! _B,3 B, B,2 B,B, |"^Sturm" A,4 z2 A,A, | B,2 B,B, B,2 G,G, | .F,2 .A,2 z4 | %12
w: Horch! wie brau- set der||||
!pp! A,3 A, A,2 A,A, |!<(! !breath!A,8!<)! | =A,3 A, A,2 A,A, |!<(! !breath!=A,6!<)! A,A, | %16
w: ||||
!f! G,2!<(! C!<)!C!<(! C2 C!<)!C |!ff! C4 .=B,2 .=A,2 | =B,4!>(! !fermata!G,4!>)! ||[K:C] G,6 G,2 | %20
w: ||||
 G,2 .G,.G, G,2 z2 | G,6 G,2 | G,2 .G,.G, G,2 z2 |"^dolce" G,4 G,2 G,2 | G,4 G,2 z2 | G,4 G,2 G,2 | %26
w: ||||||
 G,4 G,2 G,2 |!<(! G,8-!<)! |!>(! G,2!>)! z2 z4 |!pp! ^G,3 G,"^cresc." G,2 G,G, | %30
w: ||||
 A,2 A,A, A,2 A,A, |!f! ^G,4 A,3 A, | .A,2 .^G,2 z4 |!p! E,3 E,"^cresc." E,2 E,E, | %34
w: ||||
 ^F,2 F,F, F,2 F,F, |!f! ^G,4 G,3 G, | .^G,2 .A,2 z4 | A,6 _B,2 | A,2 .A,.A, A,2 z2 | A,6 _B,2 | %40
w: ||||||
 A,2 .A,.A, A,2 z2 |!p! G,4 G,2 G,2 | G,4 G,4 | G,4 G,2 G,2 |!>(! G,6!>)! z2 | A,6 A,2 | %46
w: ||||||
 A,2 A,A, A,2 z2 | B,6 C2 | B,2 B,B, !fermata!B,4 |"^dolce" G,4 .G,2 .G,2 | G,4 .G,2 .G,2 | %51
w: |||||
 (G,2 B,4) G,2 |!>(! G,6!>)! z2 | G,4 .G,2 .G,2 | G,4 !breath!.G,2!p! .G,2 | %55
w: ||||
 (G,2!>(! B,4)!>)! G,2 |"^cresc." !breath!G,6 G,2 | (G,2 B,4) B,2 |!f!!>(! !fermata!G,8!>)! |] %59
w: ||||
V:4
 C,3 C, C,2 C,C, | C,2 C,C, C,2 C,C, | C,4 D,2 E,2 | .D,2 .=B,,2 x4 | D,3 D, D,2 D,D, | %5
w: |||||
 =B,,2 B,,B,, B,,2 B,,B,, | =B,,4 C,2 D,2 | .E,2 .C,2 x4 | G,3 G, G,2 G,G, | F,4 x2 F,F, | %10
w: |||||
 =E,2 E,E, E,2 E,E, | .F,2 .F,2 x4 | F,3 F, F,2 F,F, | F,8 | ^F,3 F, F,2 F,F, | ^F,6 F,F, | %16
w: ||||||
 G,2 B,B, =A,2 _A,A, | G,8- | G,4 G,,4 ||[K:C] C,6 F,2 | E,2 .F,.D, E,2 x2 | C,6 F,2 | %22
w: |Nacht|_ _||||
 E,2 .F,.D, E,2 x2 | E,4 F,2 E,2 | D,4 G,,2 x2 | (C,2 E,2) F,2 E,2 | D,4 G,,2 G,,2 | (G,,8 | %28
w: ||||||
 C,2) x2 x4 | E,3 E, D,2 D,D, | C,2 C,C, C,2 C,C, | B,,4 A,,3 C, | .E,2 .E,2 x4 | E,3 E, E,2 E,E, | %34
w: ||||||
 E,2 E,E, E,2 E,E, | E,4 E,3 E, | .E,2 .F,2 x4 | D,6 G,2 | F,2 .G,.E, F,2 x2 | D,6 G,2 | %40
w: ||||||
 F,2 .G,.E, F,2 x2 | D,4 G,,2 G,,2 | (C,2 E,2) (F,2 E,2) | D,4 G,,2 G,,2 | (G,,4 C,2) x2 | %45
w: |||||
 D,6 _E,2 | D,2 D,D, D,2 x2 | G,6 _A,2 | G,2 G,G, G,4 | C,4 .C,2 .C,2 | C,4 .C,2 .C,2 | %51
w: ||||||
 G,,4 z2 G,,2 | (G,,4 C,2) x2 | C,4 .C,2 .C,2 | C,4 .C,2 .C,2 | G,,4 z2 G,,2 | (C,2 G,4) E,C, | %57
w: ||||||
 G,,6 G,2 | C,8 |] %59
w: ||

